X:5
T: Quille's
S: "Where's the Crack v/1" (DJ Taylor)
Z: B.Black
L: 1/8
M: 4/4
R: reel
K: D
F |D2 FA BABc |dfed BE E2 |D2 FA BABc |dBAG FG A :|
B |d2 fd Adfa |g2 fg eB B2 |d2 fd Adfa |(3fga ea fddc |
d2 fd Adfa | (3gag fg eB B2 | f3 e d3 B | A2 AG FG A ||
